src/icons/icons_set_04/013-smiley-excellent.svg

<svg height="50" viewBox="0 0 50 50" width="50" xmlns="http://www.w3.org/2000/svg"><path d="m35.7056993 6.30710133c8.1106668 8.12459717 8.1106668 21.28240277 0 29.40699997-8.1191666 8.1134328-21.2778112 8.1103341-29.3931558-.0069215-8.11534457-8.117256-8.11534457-21.2759009 0-29.39315679 8.1153446-8.11725585 21.2739892-8.12035452 29.3931558-.00692168zm-4.7023193 17.84584797h-.0196047c-.1034952-.1592189-.2806125-.2551575-.470512-.2548606l-19.0445333-.0224054c-.1868436.000346-.3612126.093833-.4649107.2492594-.1057408.156224-.1257417.3551806-.0532126.529326 1.6271873 3.898528 5.5845293 6.419128 10.0824 6.419128 4.4166513 0 8.3375846-2.5065967 10.0179846-6.3883207.0751912-.1740053.0572759-.3742337-.0476113-.5321267zm-17.467758-7.3489493c.4479081-.64641 1.1814298-1.0355235 1.9678125-1.0438715.7863828-.008348 1.5279997.3651058 1.9895295 1.0018615.7089426-1.0160727.5403248-2.4027537-.391463-3.2193166-.9317878-.816563-2.3286042-.8017347-3.2428472.0344251-.9142429.8361598-1.0533849 2.2261079-.3230318 3.2269015zm11.015022 0 .0028007.0140033c.4472854-.6463938 1.1803887-1.0355892 1.9664038-1.0439393.786015-.00835 1.5272209.3651835 1.9881375 1.0019293.288714-.4094931.4415385-.8993154.436904-1.4003333-.0014474-1.0511973-.6791426-1.9820913-1.6790658-2.3063933-.999923-.3243021-2.0949748.0316421-2.7131126.8818912-.6181377.8502492-.6189722 2.0016979-.0020676 2.8528421z" transform="translate(3.995 3.995)"/></svg>

<?xml version="1.0" encoding="UTF-8"?>
<svg width="50px" height="50px" viewBox="0 0 50 50" version="1.1" xmlns="http://www.w3.org/2000/svg" xmlns:xlink="http://www.w3.org/1999/xlink">
    <!-- Generator: Sketch 52.4 (67378) - http://www.bohemiancoding.com/sketch -->
    <title>013-smiley-excellent</title>
    <desc>Created with Sketch.</desc>
    <g id="013-smiley-excellent" stroke="none" stroke-width="1" fill="none" fill-rule="evenodd">
        <g id="Group" transform="translate(3.995000, 3.995000)" fill="#000000" fill-rule="nonzero">
            <g id="007-smiley-excellent">
                <g id="ICONSET-01">
                    <g id="007-smiley-excellent">
                        <path d="M35.7056993,6.30710133 C43.8163661,14.4316985 43.8163661,27.5895041 35.7056993,35.7141013 C27.5865327,43.8275341 14.4278881,43.8244354 6.3125435,35.7071798 C-1.80280107,27.5899238 -1.80280107,14.4312789 6.3125435,6.31402301 C14.4278881,-1.80323284 27.5865327,-1.80633151 35.7056993,6.30710133 Z M31.00338,24.1529493 L30.9837753,24.1529493 C30.8802801,23.9937304 30.7031628,23.8977918 30.5132633,23.8980887 L11.46873,23.8756833 C11.2818864,23.8760293 11.1075174,23.9695163 11.0038193,24.1249427 C10.8980785,24.2811667 10.8780776,24.4801233 10.9506067,24.6542687 C12.577794,28.5527967 16.535136,31.0733967 21.0330067,31.0733967 C25.449658,31.0733967 29.3705913,28.5668 31.0509913,24.685076 C31.1261825,24.5110707 31.1082672,24.3108423 31.00338,24.1529493 Z M13.535622,16.804 C13.9835301,16.15759 14.7170518,15.7684765 15.5034345,15.7601285 C16.2898173,15.7517805 17.0314342,16.1252343 17.492964,16.76199 C18.2019066,15.7459173 18.0332888,14.3592363 17.101501,13.5426734 C16.1697132,12.7261104 14.7728968,12.7409387 13.8586538,13.5770985 C12.9444109,14.4132583 12.8052689,15.8032064 13.535622,16.804 Z M24.550644,16.804 L24.5534447,16.8180033 C25.0007301,16.1716095 25.7338334,15.7824141 26.5198485,15.774064 C27.3058635,15.765714 28.0470694,16.1392475 28.507986,16.7759933 C28.7967,16.3665002 28.9495245,15.8766779 28.94489,15.37566 C28.9434426,14.3244627 28.2657474,13.3935687 27.2658242,13.0692667 C26.2659012,12.7449646 25.1708494,13.1009088 24.5527116,13.9511579 C23.9345739,14.8014071 23.9337394,15.9528558 24.550644,16.804 Z" id="Combined-Shape"></path>
                    </g>
                </g>
            </g>
        </g>
    </g>
</svg>
